X:1
T:Title
%%score { 1 | 2 }
L:1/8
Q:1/4=100
M:4/4
K:Eb
V:1 treble nm="Grand Piano"
V:2 bass 
V:1
 G2 G2 A2 G2 | [DG]2 [DF]2 E4 | G2 B2 A2 G2 | F2 [A,EF]2 [B,DF]4 | [B,EG]2 [B,EG]2 [CEA]2 [B,EG]2 | %5
w: J.~B.~Trowbridge * * *|||||
 [B,EG]2 [A,DF]2 [G,CE]4 | [A,CF]2 [CFA]2 [B,EG]2 [A,CF]2 | [G,B,E]2 [F,B,D]2 [G,B,E]4 |] %8
w: |||
V:2
 [E,B,D]2 [E,B,D]2 [E,CD]2 [E,B,D]2 | [B,,B,]2 [B,,A,]2 [E,G,]4 | %2
 [E,B,E]2 [E,G,E]2 [E,CE]2 [E,B,E]2 | [D,B,]2 C,2 B,,4 | E,2 E,2 E,2 E,2 | B,,2 B,,2 C,4 | %6
 A,,2 F,,2 G,,2 A,,2 | B,,2 B,,2 E,4 |] %8

